X: 1
T: The Joys of Quebec
T: Les Joies de Qu\'ebec
O: French Canadian
Z: 1997 by John Chambers <jc:trillian.mit.edu>
M: 4/4
L: 1/4
K: A
e/e/ |:\
"A"e/c/c/c/ ce/e/ | e/c/c/c/ ce/e/ | "A"f/A/e/A/ d/A/c/A/ | "E"d/B/B/B/ Bd/d/ |  d/B/B/B/ Bd/d/ |
"E"d/B/B/B/ Bd/d/ |1 "E"ee g/f/e/g/ | "A"f/e/^d/f/ "E"ec/d/ :|2 "E"ee/e/ "D"f/e/f/g/ | "A"a3 ||
|: c/d/ | \
"A"Mez"D"Mfz | "A"e3/2f/ eA/B/ | "A"cc "D"df |  "A"c3/2d/ cA/c/ | BA GA |
"E"B3/2c/ BB/c/ |1"E"de fg | "A"f/e/^d/f/ "E"e :|2 "E"de f/e/f/g/ | "A"a/f/e/c/ A |]

%%sep 1 1 500

